icon-themes/sifr_svg/cmd/lc_starshapes.star6.svg

<svg viewBox="0 0 24 24" xmlns="http://www.w3.org/2000/svg"><g fill="#555753"><path d="m12 1.0019531c-1.351494 1.9525434-2.5767644 3.9890703-3.8417969 5.9980469h-7.1582031l4.3378906 5-4.3378906 5h7.1582031l3.8417969 5.998047 3.841797-6h7.158203l-4.337891-5 4.337891-5.0000001h-7.158203c-1.266589-2.0084756-2.500576-4.0365798-3.841797-5.9960938zm0 3.546875 3 4.4492188h3.886719l-2.886719 3.0000001 2.886719 3h-3.886719l-3 4.453125-3-4.451172h-3.8867188l2.8867188-3-2.8867188-3h3.8867188z"/><path d="m12 4.548828 3 4.4492188h3.886719l-2.886719 3.0000002 2.886719 3h-3.886719l-3 4.453125-3-4.451172h-3.8867188l2.8867188-3-2.8867188-3.0000001h3.8867188z" opacity=".35"/></g></svg>

<svg xmlns="http://www.w3.org/2000/svg" viewBox="0 0 24 24">
  <path
     style="fill:#555753"
     d="M 12 1.0019531 C 10.648506 2.9544965 9.4232356 4.9910234 8.1582031 7 L 1 7 L 5.3378906 12 L 1 17 L 8.1582031 17 L 12 22.998047 L 15.841797 16.998047 L 23 16.998047 L 18.662109 11.998047 L 23 6.9980469 L 15.841797 6.9980469 C 14.575208 4.9895713 13.341221 2.9614671 12 1.0019531 z M 12 4.5488281 L 15 8.9980469 L 18.886719 8.9980469 L 16 11.998047 L 18.886719 14.998047 L 15 14.998047 L 12 19.451172 L 9 15 L 5.1132812 15 L 8 12 L 5.1132812 9 L 9 9 L 12 4.5488281 z "
     />
  <path
     style="opacity:0.35;fill:#555753"
     d="m 12,4.548828 3,4.4492188 h 3.886719 L 16,11.998047 l 2.886719,3 H 15 L 12,19.451172 9,15 H 5.1132812 L 8,12 5.1132812,8.9999999 H 9 Z"
     />
</svg>
